packages/ui-icons/svg/Solid/quiz-stats-avg.svg

<svg viewBox="0 0 1920 1920" version="1.1" xmlns="http://www.w3.org/2000/svg">
    <path d="M1298.82353,1298.82353 C1222.36235,1298.82353 1158.32471,1247.54824 1137.31765,1177.97647 C1088.75294,1217.61882 1027.53882,1242.35294 960,1242.35294 C896.188235,1242.35294 837.910588,1220.32941 790.588235,1184.41412 L790.588235,1468.23529 L677.647059,1468.23529 L677.647059,960 L677.647059,903.529412 L677.647059,621.176471 L790.588235,621.176471 L790.588235,903.529412 L790.588235,960 C790.588235,1053.40235 866.597647,1129.41176 960,1129.41176 C1053.40235,1129.41176 1129.41176,1053.40235 1129.41176,960 L1129.41176,621.176471 L1242.35294,621.176471 L1242.35294,960 L1242.35294,1129.41176 C1242.35294,1160.58353 1267.76471,1185.88235 1298.82353,1185.88235 L1298.82353,1298.82353 Z M960,2.5243549e-29 C430.644706,2.5243549e-29 2.5243549e-29,430.644706 2.5243549e-29,960 C2.5243549e-29,1489.35529 430.644706,1920 960,1920 C1489.35529,1920 1920,1489.35529 1920,960 C1920,430.644706 1489.35529,2.5243549e-29 960,2.5243549e-29 L960,2.5243549e-29 Z" stroke="none" stroke-width="1" fill-rule="evenodd"/>
</svg>

<svg viewBox="0 0 1920 1920" xmlns="http://www.w3.org/2000/svg">
    <path d="M1298.824 1298.824c-76.462 0-140.5-51.276-161.506-120.848-48.565 39.643-109.78 64.377-177.318 64.377-63.812 0-122.09-22.024-169.412-57.939v283.821h-112.94V621.176h112.94V960c0 93.402 76.01 169.412 169.412 169.412s169.412-76.01 169.412-169.412V621.176h112.94v508.236c0 31.172 25.413 56.47 56.472 56.47v112.942ZM960 0C430.645 0 0 430.645 0 960s430.645 960 960 960 960-430.645 960-960S1489.355 0 960 0Z" fill-rule="evenodd"/>
</svg>
